libs/ui/packages/crypto-icons/src/svg/TEL.svg

<svg width="24" height="24" viewBox="0 0 24 24" fill="none">
<path d="M18.81 8.6086C19.2847 8.99335 19.584 9.78911 19.479 10.3734L18.459 16.0164C18.3525 16.6044 17.79 17.2516 17.211 17.4549L11.6467 19.4086C11.0677 19.6119 10.2067 19.4649 9.73275 19.0801L5.18925 15.3924C4.7145 15.0076 4.4145 14.2156 4.52175 13.6276L5.54175 7.98461C5.6475 7.39661 6.21 6.75011 6.78975 6.54611L12.3547 4.59161C12.9345 4.38761 13.7947 4.53611 14.2695 4.92011L18.81 8.6086ZM14.0767 11.1421L14.3032 9.99461L12.1792 9.99836L12.4792 8.48635H11.793C11.298 9.24496 10.577 9.82873 9.732 10.1551L9.53925 11.1444H10.4677C10.4677 11.1444 10.1535 12.5649 10.0477 13.0891C9.78525 14.4241 10.4452 15.3706 11.4592 15.3706H13.1752L13.4752 14.1031H12.0397C11.4022 14.1031 11.436 13.7544 11.5597 13.1356L11.955 11.1391L14.0767 11.1421Z" fill="#14C8FF"/>
</svg>

<svg width="24" height="24" viewBox="0 0 24 24" fill="none"><path fill="#14c8ff" d="M18.81 8.609c.475.384.774 1.18.669 1.764l-1.02 5.643c-.107.588-.669 1.236-1.248 1.439l-5.564 1.954c-.58.203-1.44.056-1.914-.329l-4.544-3.688c-.474-.384-.774-1.176-.667-1.764l1.02-5.643c.106-.588.668-1.235 1.248-1.439l5.565-1.954c.58-.204 1.44-.056 1.915.328zm-4.733 2.533.226-1.147-2.124.003.3-1.512h-.686a4.3 4.3 0 0 1-2.061 1.67l-.193.988h.929s-.315 1.42-.42 1.945c-.263 1.335.397 2.282 1.411 2.282h1.716l.3-1.268H12.04c-.638 0-.604-.349-.48-.967l.395-1.997z"/></svg>
